svg/user/user_question_line.svg

<?xml version="1.0" encoding="UTF-8"?>
<svg width="24px" height="24px" viewBox="0 0 24 24" version="1.1" xmlns="http://www.w3.org/2000/svg" xmlns:xlink="http://www.w3.org/1999/xlink">
    <title>user_question_line</title>
    <g id="Icon" stroke="none" stroke-width="1" fill="none" fill-rule="evenodd">
        <g id="User" transform="translate(-144.000000, -96.000000)">
            <g id="user_question_line" transform="translate(144.000000, 96.000000)">
                <path d="M24,0 L24,24 L0,24 L0,0 L24,0 Z M12.5935,23.2578 L12.5819,23.2595 L12.5109,23.295 L12.4919,23.2987 L12.4767,23.295 L12.4057,23.2595 C12.3958,23.2564 12.387,23.259 12.3821,23.2649 L12.378,23.2758 L12.3609,23.7031 L12.3659,23.7235 L12.3769,23.7357 L12.4805,23.8097 L12.4953,23.8136 L12.5071,23.8097 L12.6107,23.7357 L12.6233,23.7197 L12.6267,23.7031 L12.6096,23.2758 C12.6076,23.2657 12.601,23.2593 12.5935,23.2578 Z M12.8584,23.1453 L12.8445,23.1473 L12.6598,23.2397 L12.6499,23.2499 L12.6472,23.2611 L12.6651,23.6906 L12.6699,23.7034 L12.6784,23.7105 L12.8793,23.8032 C12.8914,23.8069 12.9022,23.803 12.9078,23.7952 L12.9118,23.7812 L12.8777,23.1665 C12.8753,23.1546 12.8674,23.147 12.8584,23.1453 Z M12.143,23.1473 C12.1332,23.1424 12.1222,23.1453 12.1156,23.1526 L12.1099,23.1665 L12.0758,23.7812 C12.0751,23.7927 12.0828,23.8019 12.0926,23.8046 L12.1083,23.8032 L12.3092,23.7105 L12.3186,23.7024 L12.3225,23.6906 L12.3404,23.2611 L12.3372,23.2485 L12.3278,23.2397 L12.143,23.1473 Z" id="MingCute" fill-rule="nonzero"></path>
                <path d="M11,2 C8.23858,2 6,4.23858 6,7 C6,9.76142 8.23858,12 11,12 C13.7614,12 16,9.76142 16,7 C16,4.23858 13.7614,2 11,2 Z M8,7 C8,5.34315 9.34315,4 11,4 C12.6569,4 14,5.34315 14,7 C14,8.65685 12.6569,10 11,10 C9.34315,10 8,8.65685 8,7 Z M4,18.5 C4,18.3206 4.08967,18.0111 4.41339,17.6013 C4.72913,17.2015 5.21714,16.7735 5.86402,16.3788 C7.15705,15.5898 8.97719,15 11,15 C11.3754,15 11.7444,15.0203 12.1048,15.0586 C12.654,15.117 13.1465,14.7191 13.2048,14.1699 C13.2632,13.6207 12.8653,13.1282 12.3161,13.0698 C11.887,13.0242 11.4475,13 11,13 C8.60453,13 6.42467,13.6937 4.82227,14.6715 C4.02143,15.1602 3.33788,15.7363 2.84397,16.3615 C2.35805,16.9767 2,17.713 2,18.5 C2,19.3449 2.41114,20.0111 3.00266,20.4859 C3.56324,20.9359 4.30182,21.2336 5.08716,21.4416 C6.66466,21.8593 8.77101,22 11,22 L11.6854,21.9953 L11.6854,21.9953 C12.2376,21.9877 12.679,21.5338 12.6714,20.9815 C12.6637,20.4293 12.2098,19.9879 11.6576,19.9955 L11,20 L11,20 C8.81071,20 6.91706,19.8572 5.59914,19.5082 C4.93676,19.3328 4.50376,19.1262 4.2547,18.9263 C4.03657,18.7512 4,18.6216 4,18.5 Z M17,21 C17,20.48715 17.386027,20.0644908 17.8833761,20.0067275 L18.002,20 C18.5542,20 19.002,20.4477 19.002,21 C19.002,21.51285 18.6158867,21.9355092 18.1186055,21.9932725 L18,22 C17.4477,22 17,21.5523 17,21 Z M17.5669,16.2496 C17.655,16.0981 17.8166,16 17.9999,16 C18.2761,16 18.4999,16.2239 18.4999,16.5 C18.4999,16.6353 18.4522,16.7549 18.1788,16.9799 L18.0340222,17.0935074 L18.0340222,17.0935074 L17.9236,17.1761 C17.8501,17.2308 17.7619,17.2964 17.6807,17.3616 L17.5419875,17.4782156 C17.3795937,17.6237625 17.163875,17.856075 17.0543,18.1749 C16.8747,18.6972 17.1526,19.2661 17.6749,19.4457 C18.1511,19.6094 18.666,19.3929 18.8893,18.9575 L18.9858852,18.8795556 L18.9858852,18.8795556 L19.3426222,18.6100556 C19.3777556,18.5825556 19.4137667,18.5538 19.45,18.524 L19.6312901,18.3662993 C20.0369902,17.9916489 20.4999,17.3983 20.4999,16.5 C20.4999,15.1193 19.3806,14 17.9999,14 C17.0757,14 16.27,14.502 15.8384,15.2434 C15.5606,15.7207 15.7223,16.3329 16.1996,16.6107 C16.6769,16.8886 17.289,16.7269 17.5669,16.2496 Z" id="形状" fill="#09244B"></path>
            </g>
        </g>
    </g>
</svg>

<svg xmlns="http://www.w3.org/2000/svg" width="24" height="24"><g fill="none" fill-rule="evenodd"><path d="M24 0v24H0V0h24ZM12.594 23.258l-.012.002-.071.035-.02.004-.014-.004-.071-.036c-.01-.003-.019 0-.024.006l-.004.01-.017.428.005.02.01.013.104.074.015.004.012-.004.104-.074.012-.016.004-.017-.017-.427c-.002-.01-.009-.017-.016-.018Zm.264-.113-.014.002-.184.093-.01.01-.003.011.018.43.005.012.008.008.201.092c.012.004.023 0 .029-.008l.004-.014-.034-.614c-.003-.012-.01-.02-.02-.022Zm-.715.002a.023.023 0 0 0-.027.006l-.006.014-.034.614c0 .012.007.02.017.024l.015-.002.201-.093.01-.008.003-.011.018-.43-.003-.012-.01-.01-.184-.092Z"/><path fill="#09244B" d="M11 2a5 5 0 1 0 0 10 5 5 0 0 0 0-10ZM8 7a3 3 0 1 1 6 0 3 3 0 0 1-6 0ZM4 18.5c0-.18.09-.489.413-.899.316-.4.804-.828 1.451-1.222C7.157 15.589 8.977 15 11 15c.375 0 .744.02 1.105.059a1 1 0 1 0 .211-1.99C11.887 13.025 11.447 13 11 13c-2.395 0-4.575.694-6.178 1.672-.8.488-1.484 1.064-1.978 1.69C2.358 16.976 2 17.713 2 18.5c0 .845.411 1.511 1.003 1.986.56.45 1.299.748 2.084.956C6.665 21.859 8.771 22 11 22l.685-.005a1 1 0 1 0-.027-2L11 20c-2.19 0-4.083-.143-5.4-.492-.663-.175-1.096-.382-1.345-.582C4.037 18.751 4 18.622 4 18.5ZM17 21a1 1 0 0 1 .883-.993l.119-.007a1 1 0 0 1 .117 1.993L18 22a1 1 0 0 1-1-1Zm.567-4.75a.5.5 0 0 1 .933.25c0 .135-.048.255-.321.48l-.145.114-.11.082c-.074.055-.162.12-.243.186l-.139.116a1.7 1.7 0 0 0-.488.697 1 1 0 0 0 1.835.782l.097-.077.357-.27.107-.086.181-.158c.406-.374.869-.968.869-1.866a2.5 2.5 0 0 0-4.662-1.257 1 1 0 0 0 1.729 1.007Z"/></g></svg>
